!!!!SEGMENT: pl-wtm--r-1398_stefani-jozef--marche.krn
!!!cenid: 18xx:1870
!!!COM: Stefani, Józef
!!!COM-rismid: pe30024097
!!!CDT: 1800/04/16-1876/03/19
!!!CNT: Polish
!!!OTL: Marche
!!!PDT:
!!!AGN: Secular; March
!!!SMS-siglum: PL-Wtm
!!!SMS-shelfmark: R 1398
!!!SMS-shelfwork: W
!!!SMS-variant:
!!!SMS-altvar:
!!!NIFC-rismid: 1001117871
!!!URL-scan: http://repozytorium.nifc.pl/skany/pl-wtm-nut--r1398
!!!ONB-nifc: UWAGA: Introduzione + Marche razem
!!!key:
**kern	**kern	**dynam
*part1	*part1	*part1
*staff2	*staff1	*
*Ipiano	*Ipiano	*
*I"[Piano]	*I"[Piano]	*
*I'[pf]	*I'[pf]	*
*clefF4	*clefG2	*
*k[b-e-a-]	*k[b-e-a-]	*
*E-:	*E-:	*
*M4/4	*M4/4	*
*met(c)	*met(c)	*
*[>A,B,C,C,D,E,E,B,C,C,F]	*[>A,B,C,C,D,E,E,B,C,C,F]	*
=1	=1	=1
*>A	*>A	*
*2\right	*2\right	*
!	!LO:TX:a:i:t=Allegro.	!
!	!LO:TX:a:i:t=Introducione	!
(<16BB-/LL	1r	f
16AAn/	.	.
16BB-/	.	.
16AA/JJ	.	.
8BB-/)	.	.
8r	.	.
(<16BB-/LL	.	.
16AA/	.	.
16BB-/	.	.
16AA/JJ	.	.
8BB-/)	.	.
8r	.	.
=2	=2	=2
*	*tremolo	*
4.BB-/	(16aa-LL 16ff\	.
.	16b-\	.
.	16aa- 16ff\	.
.	16b-\	.
.	16aa- 16ff\	.
.	16b-\	.
8AAn/	16aa- 16ff\	.
.	16b-\JJ	.
*	*Xtremolo	*
*	*rep	*
8BB-/L	16aa-LL 16ff\	.
.	16b-\	.
8BBn/	16aa- 16ff\	.
.	16b-\	.
8C/	16aa- 16ff\	.
.	16b-\	.
8D/J	16aa- 16ff\	.
.	16b-\JJ	.
*	*Xrep	*
=3	=3	=3
(>16E-\LL	4gg 4ee- 4b-\)	.
16D\	.	.
16E-\	.	.
16D\JJ	.	.
8E-\)	4r	.
8r	.	.
(>16E-\LL	2r	.
16D\	.	.
16E-\	.	.
16D\JJ	.	.
8E-\)	.	.
8r	.	.
!!LO:LB:g=original
=4	=4	=4
*	*tremolo	*
4.E-\	16ddd-XLL 16bb-\	.
.	16ee-\	.
.	16ddd- 16bb-\	.
.	16ee-\	.
.	16ddd- 16bb-\	.
.	16ee-\	.
8D\	16ddd- 16bb-\	.
.	16ee-\JJ	.
*	*Xtremolo	*
*	*rep	*
8E-\L	16ddd-LL 16bb-\	.
.	16ee-\	.
8En\	16ddd- 16bb-\	.
.	16ee-\	.
8F\	16ddd- 16bb-\	.
.	16ee-\	.
8G\J	16ddd- 16bb-\	.
.	16ee-\JJ	.
*	*Xrep	*
=5	=5	=5
8A-\	8ccc 8aa- 8ee-\	.
8cL 8B- 8G 8En\	4ccc 4cc^<\	.
8c 8B- 8G 8E\	.	.
8cJ 8B- 8G 8E\	8gg 8g\	.
8c 8A- 8F\	8aa- 8a-\	.
8cL 8B- 8G 8E\	4ccc 4cc^<\	.
8c 8B- 8G 8E\	.	.
8cJ 8B- 8G 8E\	8gg 8g\	.
=6	=6	=6
8c 8A- 8F\	8aa- 8a-\	.
8dL 8c 8An 8F#X\	4ddd 4dd^<\	.
8d 8c 8A 8F#\	.	.
8dJ 8c 8A 8F#\	8aan 8an\	.
8d 8B- 8G\	8bb- 8b-\	.
8dL 8c 8A 8F#\	4ddd 4dd^<\	.
8d 8c 8A 8F#\	.	.
8dJ 8c 8A 8F#\	8aa 8a\	.
=7	=7	=7
8d 8B- 8G\	8bb- 8b-\	.
8enL 8d 8Bn 8G#X\	4eeen 4een^<\	.
8e 8d 8B 8G#\	.	.
8eJ 8d 8B 8G#\	8bbn 8bn\	.
8e 8c 8An\	8ccc 8cc\	.
8eL 8d 8B 8G#\	4eee 4ee^<\	.
8e 8d 8B 8G#\	.	.
8eJ 8d 8B 8G#\	8bb 8b\	.
!!LO:LB:g=original
=8	=8	=8
8en 8c 8An\	8ccc 8cc\	.
8f#XL 8e 8c#X 8A#X\	4fff#X 4ff#X^<\	.
8f# 8e 8c# 8A#\	.	.
8f#J 8e 8c# 8A#\	8ccc#X 8cc#X\	.
8f# 8d 8Bn\	8ddd 8dd\	.
8gL 8d 8B\	4ggg 4gg^<\	.
8g 8d 8B\	.	.
8gJ 8d 8B\	8ddd 8dd\	.
=9	=9	=9
8gL 8e-X 8c\	(16ee-X\LL	.
.	16eee-X\	.
8gJ 8e- 8c\	16ee-\	.
.	16eee-\JJ	.
8gL 8en 8c 8B-X\	16een\LL	.
.	16eeen\	.
8gJ 8e 8c 8B-\	16ee\	.
.	16eee\JJ	.
.	(<8qff/	.
*tremolo	*	*
8fL 8c 8An\	8fff 8ff\))	.
8f 8c 8A\	4fff 4ff^<\	.
8f 8c 8A\	.	.
8fJ 8c 8A\	8ccc 8cc\	.
*Xtremolo	*	*
=10	=10	=10
8fL 8d 8B-X\	(16dd\LL	.
.	16ddd\	.
8fJ 8d 8B-\	16dd\	.
.	16ddd\JJ	.
*	*rep	*
8fL 8d 8An\	16dd\LL	.
.	16ddd\	.
8fJ 8d 8A\	16dd\	.
.	16ddd\JJ	.
*	*Xrep	*
.	(<8qee-/)	.
*tremolo	*	*
8gL 8B- 8G\	8eee- 8ee-\)	.
8g 8B- 8G\	4eee- 4ee-^<\	.
8g 8B- 8G\	.	.
8gJ 8B- 8G\	8bb- 8b-\	.
*Xtremolo	*	*
=11	=11	=11
8e-L 8c 8An\	(>16cc\LL	.
.	16ccc\	.
8e-J 8c 8A\	16cc\	.
.	16ccc\JJ	.
*	*rep	*
8e-L 8c 8G\	16cc\LL	.
.	16ccc\	.
8e-J 8c 8G\	16cc\	.
.	16ccc\JJ	.
*	*Xrep	*
.	(<8qdd/)	.
*tremolo	*	*
8dL 8An 8F#X\	8ddd 8dd\)	.
8d 8A 8F#\	4ddd 4dd^<\	.
8d 8A 8F#\	.	.
8dJ 8A 8F#\	8aan 8an\	.
*Xtremolo	*	*
!!LO:LB:g=original
=12	=12	=12
8dL 8B- 8G\	(>16b-\LL	.
.	16bb-\	.
8dJ 8B- 8G\	16b-\	.
.	16bb-\JJ	.
8dL 8Bn 8G 8F\	16bn\LL	.
.	16bbn\	.
8dJ 8B 8G 8F\	16b\	.
.	16bb\JJ	.
8cL 8G 8E-\	16cc\LL	.
.	16ccc\	.
8cJ 8G 8E-\	16cc\	.
.	16ccc\JJ	.
8cL 8G 8C\	16ee-\LL	.
.	16eee-\	.
8cJ 8G 8C\	16ee-\	.
.	16eee-\JJ)	.
=13	=13	=13
8d 8B- 8F\	8dddL 8bb- 8ff\	.
8r	8dddJ 8bb- 8ff\	.
8d 8B- 8G\	8r	.
8r	8bb- 8gg 8dd\	.
8c 8G 8E-\	8r	.
8r	8ccc 8gg 8ee-\	.
8c 8An 8F\	8r	.
8r	8aan 8ff 8ee- 8cc\	.
=14	=14	=14
8d 8B-\	16bb-LL 16ff 16dd\	.
.	(>16ccc\	.
8r	16ddd\	.
.	16ccc\JJ	.
4r	16bb-\LL	.
.	16aan\	.
.	16gg\	.
.	16ff\JJ	.
2r	16ee-\LL	.
.	16dd\	.
.	16cc\	.
.	16b-\JJ	.
.	16an/LL	.
.	16g/	.
.	16f/	.
.	16e-/JJ)	.
!!LO:LB:g=original
=15	=15	=15
4r	4d/	.
4BB- 4BBB-/	4bb- 4ff 4dd\	.
4E- 4EE-/	4ccc 4gg 4ee-\	.
4F 4FF/	4aan 4ff 4ee- 4cc\	.
=16	=16	=16
(>16B-LL 16BB-\	(>16bb-LL 16ff 16dd\	.
16d\	16ddd\	.
16f\	16fff\	.
16e-\JJ)	16eee-\JJ)	.
(>16d\LL	(>16ddd\LL	.
16c\	16ccc\	.
16B-\	16bb-\	.
16An\JJ)	16aan\JJ)	.
(>16B-\LL	(>16bb-\LL	.
16A\	16aa\	.
16G\	16gg\	.
16F\JJ)	16ff\JJ)	.
(>16G\LL	(>16gg\LL	.
16F\	16ff\	.
16E-\	16ee-\	.
16D\JJ	16dd\JJ)	.
=17	=17	=17
4E-\)	4ee-\	.
4C/	4ccc 4gg 4ee-\	.
4F 4FF/	4bb- 4ff 4dd\	.
4F 4FF/	4aan 4ff 4ee- 4cc\	.
=18	=18	=18
8B- 8BB-\	8bb- 8ff 8dd\	.
4G-X 4GG-X/	4aan 4ee- 4cc^<\	.
8F 8FF/	8aa 8ee- 8cc\	.
8F 8BB-\	8bb- 8dd\	.
4F 4FF/	4ccc 4aa 4ff^<\	.
8F 8FF/	8ccc 8aa 8ff\	.
!!LO:LB:g=original
=19	=19	=19
8B- 8BB-\	8ddd 8bb- 8ff\	.
4G-X 4GG-X/	4aan 4ee- 4cc^<\	.
8F 8FF/	8aa 8ee- 8cc\	.
8F 8BB-\	8bb- 8dd\	.
4F 4FF/	4ccc 4aa 4ff^<\	.
8F 8FF/	8ccc 8aa 8ff\	.
=20	=20	=20
8B- 8BB-\	8ddd 8bb- 8ff\	.
4G-X 4GG-X/	4aan 4ee- 4cc^<\	.
8F 8FF/	8aa 8ee- 8cc\	.
8F 8BB-\	8bb- 8dd\	.
4F 4FF/	4fff 4aa 4ff^<\	.
8F 8FF/	8fff 8aa 8ff\	.
=21	=21	=21
8B- 8BB-\	8ddd 8bb- 8ff\	.
4F 4FF/	4fff 4aan 4ff^<\	.
8F 8FF/	8fff 8aa 8ff\	.
8B- 8BB-\	8fff 8aa 8ff\	.
4F 4FF/	4fff 4aa 4ff^<\	.
8F 8FF/	8fff 8aa 8ff\	.
=22	=22	=22
4B- 4BB-\	4bb- 4ff 4dd\	.
*	*tremolo	*
4B- 4BB-\	(>16ddLL 16b-\	.
.	16bb-\	.
.	16dd 16b-\	.
.	16bb-\	.
4F 4FF/	16dd 16b-\	.
.	16bb-\	.
.	16dd 16b-\	.
.	16bb-\	.
4D 4DD/	16dd 16b-\	.
.	16bb-\	.
.	16dd 16b-\	.
.	16bb-\JJ	.
=23	=23	=23
4BB- 4BBB-/	16ddLL 16b-\	.
.	16bb-\	.
.	16dd 16b-\	.
.	16bb-\	.
4B- 4BB-\	16dd 16b-\	.
.	16bb-\	.
.	16dd 16b-\	.
.	16bb-\JJ	.
*	*Xtremolo	*
*	*rep	*
4F 4FF/	16ddLL 16b-\	.
.	16bb-\	.
.	16dd 16b-\	.
.	16bb-\	.
4D 4DD/	16dd 16b-\	.
.	16bb-\	.
.	16dd 16b-\	.
.	16bb-\JJ	.
*	*Xrep	*
=24	=24	=24
4BB- 4BBB-/	4bb- 4dd 4b-\)	.
8r	8r	.
16B-\LL	16b-\LL	.
16B-\JJ	16b-\JJ	.
4B-\	4b-\	.
8r	8r	.
16B-\LL	16b-\LL	.
16B-\JJ	16b-\JJ	.
=25	=25	=25
4B-\	4b-\	.
8r	8r	.
16B-\LL	16b-\LL	.
!LO:TX:b:i:t=Atacca la\nmarcia	!	!
16B-\JJ	16b-\JJ	.
4B-\	4b-\	.
8r	8r	.
!!LO:PB:g=original
=26||	=26||	=26||
*>B	*>B	*
*k[b-e-a-]	*k[b-e-a-]	*
*M2/4	*M2/4	*
!	!LO:TX:a:i:t=Marche	!
16G\LL	16g/LL	p
16G\JJ	16g/JJ	.
=27	=27	=27
(>4B-\	(>4b-\	.
16B-\LL	16b-\LL	.
16G\	16g\	.
!	!	!LO:HP:a
16B-\	16b-\	<
16e-\JJ)	16ee-\JJ)	.
=28	=28	=28
!LO:TX:a:t=P:problem:łuk od tej nuty do ostatniej nuty w tym takcie na tej pięciolinii; nie wyświetla się ze względu na zapis *rep i *Xrep	!LO:TX:a:t=P:problem:łuk od tej nuty do ostatniej nuty w tym takcie na tej pięciolinii; nie wyświetla się ze względu na zapis *rep i *Xrep	!
(>16B-\LL	(>16b-\LL	.
16G\	16g\	.
16B-\	16b-\	.
16e-\JJ	16ee-\JJ	.
*rep	*rep	*
16B-\LL	16b-\LL	.
16G\	16g\	.
16B-\	16b-\	.
16e-\JJ)	16ee-\JJ)	.
*Xrep	*Xrep	*
=29	=29	=29
!	!	!LO:DY:t=for
8B-\L	8ddL 8b- 8f\	f
16B-L 16F 16BB-\	16bb-L 16dd 16b-\	.
16B-JJ 16F 16BB-\	16bb-JJ 16dd 16b-\	.
8B-L 8F 8BB-\	8bb-L 8dd 8b-\	.
8B-J 8F 8D\	8aa-J 8ff 8b-\	.
=30	=30	=30
8B-L 8G 8E-\	8ggL 8ee- 8b-\	.
8A- 8F 8BB-\	8ff 8dd 8b-\	.
8GJ 8E-\	8ee-J 8b-\	.
16G\LL	16g/LL	.
16G\JJ	16g/JJ	.
!!LO:LB:g=original
=31	=31	=31
(>4B-\	(>4b-\	p
16B-\LL	16b-\LL	.
16G\	16g\	.
16B-\	16b-\	.
16e-\JJ)	16ee-\JJ)	.
=32	=32	=32
!LO:TX:a:t=P:problem:łuk od tej nuty do ostatniej nuty w tym takcie na tej pięciolinii; nie wyświetla się ze względu na zapis *rep i *Xrep	!LO:TX:a:t=P:problem:łuk od tej nuty do ostatniej nuty w tym takcie na tej pięciolinii; nie wyświetla się ze względu na zapis *rep i *Xrep	!
(16B-\LL	(16b-\LL	<
16G\	16g\	.
16B-\	16b-\	.
16e-\JJ	16ee-\JJ	.
*rep	*rep	*
16B-\LL	16b-\LL	.
16G\	16g\	.
16B-\	16b-\	.
16e-\JJ)	16ee-\JJ)	.
*Xrep	*Xrep	*
=33	=33	=33
8B-\L	8ddL 8b- 8f\	p
16B-L 16F 16BB-\	16bb-L 16dd 16b-\	.
16B-JJ 16F 16BB-\	16bb-JJ 16dd 16b-\	.
8B-L 8F 8BB-\	8bb-L 8dd 8b-\	.
8B-J 8F 8BB-\	8ddJ 8b- 8f\	.
=34	=34	=34
!LO:TX:b:t=P:problem:takt (dolna pięciolinia) zapisany nad systemem, jako wstawka	!LO:TX:a:t=P:problem:takt (górna pięciolinia) zapisany nad systemem, jako wstawka	!
8B-L 8E-\	8ee-L 8b- 8e-/	.
8F\J	8anJ 8e- 8c/	.
16.B-LL 16.BB-\	16.b-LL 16.d/	.
32B-JJk 32BB-\	32b-/JJk	.
32An\LLL	32cc\LLL	.
32A-X\	32dd 32b-\	.
32G\	32ee- 32b-\	.
32D\JJJ	32ffJJJ 32b-\	.
=35	=35	=35
4E-\	4gg 4ee- 4b-\	.
8FL 8BB-\	(>16ffLL 16dd\	.
.	16ee- 16cc\	.
8FJ 8BB-\	16dd 16b-\	.
.	16ccJJ 16a-\)	.
=36	=36	=36
4G 4E-\	(>4b- 4g/	.
8B-L 8E-\	8gL 8e-/)	.
8B-J 8E-\	8gJ 8e-/	.
!!LO:LB:g=original
=37	=37	=37
8B-L 8D\	8.a-L 8.f/	.
8B-J 8BB-\	.	.
.	16ffJk 16a- 16f/	.
8B-L 8D\	8ffL 8a- 8f/	.
8B-J 8BB-\	8a-J 8f/	.
=38	=38	=38
16E-/LL	16gLL 16e-/	.
16BB-/	16f 16d/	.
16E-/	16g 16e-/	.
16AA-/JJ	16a-JJ 16c/	.
!LO:TX:t=P:problem:mixed beam	!	!
16.BB-/LL	16.fLL 16.d/	.
32B-\JJk	32b-/JJk	.
32An\LLL	32cc\LLL	.
32A-X\	32dd 32b-\	.
32G\	32ee- 32b-\	.
32D\JJJ	32ffJJJ 32b-\	.
=39	=39	=39
4E- 4EE-/	4gg 4ee- 4b-\	.
16BBn/LL	(>16ffLL 16dd\	.
16C/	16ee- 16cc\	.
16GG/	16dd 16b-\	.
16AA-/JJ	16ccJJ 16a-\)	.
=40	=40	=40
8BB-/L	8b-L 8d/	.
16C/L	16a-L 16e- 16c/	.
16D/JJ	16fJJ 16B-/	.
8E-/L	8gL 8e- 8B-/	.
16C/L	16ee-L 16cc 16g/	.
16C/JJ	16ee-JJ 16cc 16g/	.
!!LO:LB:g=original
=41	=41	=41
4F 4FF/	16.ddLL 16.b- 16.f/	.
.	32ddK 32f/	.
.	16.cc 16.e-/	.
.	32b-JJk 32d/	.
!LO:TX:t=P:problem:mixed beam	!	!
8F/L 8FF/	8ffL 8dd 8b- 8f/	.
8e-\J 8c\ 8F\	8ant/J	.
.	(<32qqg/LLL	.
.	32qqa/JJJ	.
=	=	=
16.dLL 16.B-\	16.b-\LL)	.
32B-\K	32b-'\K	.
16.F\	16.dd'\	.
32D\JJk	32ff'\JJk	.
8BB-/	8bb-'\	.
=42!|:	=42!|:	=42!|:
*>C	*>C	*
8r	8b-\	mf
=43	=43	=43
!LO:TX:t=P:problem:mixed beam	!	!
16.BB-/LL	16.aa-LL 16.ff'\	.
32B-\K	32ggK 32ee-'\	.
16.BB-/	16.ff 16.dd'\	.
32B-\JJk	32ee-JJk 32cc'\	.
16.BB-\LL	16.ddLL 16.b-'\	.
32B-\JJk	32ccJJk 32a-'\	.
16.BB-\LL	16.b-LL 16.g'/	.
32B-\JJk	32a-JJk 32f'/	.
!!LO:LB:g=original
=44	=44	=44
16.E-\LL	16.gLL 16.e-'/	.
32B-\K	32a-K 32f'/	.
16.E-\	16.b- 16.g'/	.
32B-\JJk	32ccJJk 32a-'/	.
8E-\	8b- 8g'/	.
8r	8b-T\	.
.	(<32qqan/LLL	.
.	32qqb-/JJJ	.
=45	=45	=45
!LO:TX:t=P:problem:mixed beam	!	!
16.BB-/LL	24aa-LL 24ff'\)	.
.	(24aa- 24ff\	.
.	24ggJJ 24ee-\)	.
32B-\JJk	.	.
*rep	*	*
16.BB-\LL	24ffLL 24dd'\	.
.	(24ff 24dd\	.
.	24ee-JJ 24cc\)	.
32B-\JJk	.	.
*Xrep	*	*
*rep	*	*
16.BB-\LL	24ddLL 24b-'\	.
.	(24dd 24b-\	.
.	24ccJJ 24a-\)	.
32B-\JJk	.	.
*Xrep	*	*
*rep	*	*
16.BB-\LL	24b-LL 24g'/	.
.	(24b- 24g/	.
.	24a-JJ 24f/)	.
32B-\JJk	.	.
*Xrep	*	*
=46	=46	=46
8E- 8EE-/	16.gLL 16.e-'/	.
.	32ccK 32a-'/	.
8B- 8G 8E-\	16.b- 16.g'/	.
.	32gJJk 32e-'/	.
16.B-LL 16.F 16.BB-\	16.fLL 16.d'/	.
32B-\JJk	32b-'>/JJk	.
32An\LLL	32cc\LLL	<
32A-X\	32dd 32b-\	.
32G\	32ee- 32b-\	.
32D\JJJ	32ffJJJ 32b-\	[[
!!LO:LB:g=original
=47	=47	=47
!	!	!LO:DY:t=for.
4E- 4EE-/	4gg 4ee- 4b-\	f
16BBn/LL	(16ffLL 16dd\	.
16C/	16ee- 16cc\	.
16GG/	16dd 16b-\	.
16AA-/JJ	16ccJJ 16a-\)	.
=48	=48	=48
8BB-/L	8b-L 8f 8d/	.
16C/L	16a-L 16e- 16c/	.
16D/JJ	16fJJ 16B-/	.
8E-/	8gL 8e- 8B-/	.
16cLL 16C\	16ee-L 16cc 16g/	.
16cJJ 16C\	16ee-JJ 16cc 16g/	.
=49	=49	=49
8A- 8AA-\	8cc 8a- 8e-/	.
16A-LL 16AA-\	16ffLL 16cc 16a-\	.
16A-JJ 16AA-\	16ffJJ 16cc 16a-\	.
8B-L 8BB-\	8ee-L 8b- 8g\	.
8B-J 8BB-\	8ddJ 8b- 8a- 8f\	.
=	=	=
8B- 8E-\	8ee- 8b- 8g\	.
16.B-LL 16.E-\	16.eee-LL 16.bb- 16.gg 16.ee-\	.
32B-JJk 32E-\	32eee-JJk 32bb- 32gg 32ee-\	.
8B- 8E-\	8eee- 8bb- 8gg 8ee-\	.
!	!LO:TX:a:t=P:problem:fermata nad kreską taktową; nie wyświetla się	!
!!LO:PB:g=original
=50:|!	=50:|!	=50:|!
*>D	*>D	*
*k[b-e-a-d-]	*k[b-e-a-d-]	*
*M2/4	*M2/4	*
!	!LO:TX:b:i:t=dolce	!
!	!LO:TX:a:i:t=Trio	!
8r	8e-/	.
=51	=51	=51
!LO:TX:t=P:problem:mixed beam	!	!
8AA-/L	8ee-L 8cc'\	.
8c\J 8A-\ 8E-\	(>16ddnL 16bn\	.
.	16ee-JJ 16cc\	.
!LO:TX:t=P:problem:mixed beam	!	!
8AA-/L	8ffL 8dd-X\)	.
8c\J 8A-\ 8E-\	8ee-J 8cc'\	.
=52	=52	=52
!LO:TX:t=P:problem:mixed beam	!	!
8AA-/L	(>4aa- 4cc\	.
8c\J 8A-\ 8E-\	.	.
*rep	*	*
8AA-\L	8ccL 8a-/)	.
8cJ 8A- 8E-\	8ccJ 8a-'>/	.
*Xrep	*	*
=53	=53	=53
*^	*	*
4E-/	8E-\L	8.dd-L 8.b-\	.
.	8d-J 8B-\	.	.
.	.	16ccJk 16an\	.
4E-/	8E-\L	8dd-L 8b-\	.
.	8d-J 8B-\	8ee-J 8g\	.
*v	*v	*	*
!!LO:LB:g=original
=54	=54	=54
!LO:TX:t=P:problem:mixed beam	!	!
8AA-/L	16ccLL 16a-'\	.
.	(>16aa- 16cc\	.
8c\J 8A-\ 8E-\	16ee- 16cc\	.
.	16ccJJ 16a-\)	.
8B- 8G 8E-\	16b-LL 16g'/	.
.	16cc 16a-'/	.
8r	16dd- 16b-'/	.
.	16ddnJJ 16bn'/	.
=55	=55	=55
!LO:TX:t=P:problem:mixed beam	!	!
8AA-/L	8ee-L 8cc'\	.
8c\J 8A-\ 8E-\	(>16ddnL 16bn\	.
.	16ee-JJ 16cc\	.
!LO:TX:t=P:problem:mixed beam	!	!
8AA-/L	8ffL 8dd-X\)	.
8c\J 8A-\ 8G-X\	8ee-J 8cc'\	.
=56	=56	=56
.	(<32qqa-/LLL	.
.	32qqdd-/JJJ	.
*^	*	*
4F/	8F\L	(4aa- 4dd- 4a-\)	.
.	8d-J 8A-\	.	.
4Dn/	8Dn\L	8ffL 8f/)	.
.	8BnJ 8A- 8F\	8ffJ 8f'>/	.
=57	=57	=57	=57
4E-/	8E-\L	(>16ff\LL	.
.	.	16ee-\	.
.	8cJ 8A-\	16cc\	.
.	.	16a-\JJ)	.
4E-/	8E-\L	(<16dn/LL	.
.	.	16e-/)	.
.	8d-J 8G\	16.cc/	.
.	.	32b-/JJk	.
*v	*v	*	*
!!LO:LB:g=original
=	=	=
8c 8A-\	8a-/	.
!	!	!LO:DY:t=for
16.E-LL 16.EE-/	16.ggLL 16.ee- 16.dd- 16.b-\	f
32E-JJk 32EE-/	32ggJJk 32ee- 32dd- 32b-\	.
8A- 8AA-\	8aa- 8ee- 8cc\	.
=58!|:	=58!|:	=58!|:
*>E	*>E	*
16A-X\LL	(<16a-X/LL	p
16G\JJ	16g/JJ)	.
=59	=59	=59
(>[>4c\	(>[>4cc\	.
16c\LL]	16cc\LL]	.
16G\	16g\	.
16c\	16cc\	.
!	!	!LO:HP:a
16e-\JJ)	16ee-\JJ)	<
=60	=60	=60
16c\LL	(>16cc\LL	<
16G\	16g\	.
16c\	16cc\	.
16e-\JJ	16ee-\JJ)	.
*rep	*rep	*
16c\LL	(>16cc\LL	.
16G\	16g\	.
16c\	16cc\	.
16e-\JJ	16ee-\JJ)	[[
*Xrep	*Xrep	*
=61	=61	=61
!	!	!LO:DY:rj
8dnL 8Bn 8G\	8ddn\L	f
16.GL 16.GG\	16.ggL 16.bn 16.g\	.
32GJJk 32GG\	32ggJJk 32b 32g\	.
8GL 8GG\	8ggL 8b 8g\	.
8BJ 8BBn\	8ffJ 8dd 8g\	.
!!LO:LB:g=original
=62	=62	=62
8cL 8C\	8ee-L 8cc 8g'>/	.
8f 8dn 8G\	8ddn 8bn 8g'>/	.
8e-J 8c\	8ccJ 8g'>/	.
16G\LL	16g/LL	p
16G\JJ	16g/JJ	.
=63	=63	=63
(>[>4c\	(>[>4cc\	.
16c\LL]	16cc\LL]	.
16G\	16g\	.
16c\	16cc\	.
!	!	!LO:HP:a
16e-\JJ)	16ee-\JJ)	<
=64	=64	=64
!	!	!LO:HP:b
(>16c\LL	(>16cc\LL	<
16G\	16g\	.
16c\	16cc\	.
16e-\JJ	16ee-\JJ	.
*rep	*rep	*
16c\LL	16cc\LL	.
16G\	16g\	.
16c\	16cc\	.
16e-\JJ)	16ee-\JJ	[[
*Xrep	*Xrep	*
=65	=65	=65
!	!LO:SIC:v:s=8ddn	!LO:DY:rj
8dnL 8Bn 8G\	8dd-\L)	f
16.GL 16.GG\	16.ggL 16.bn 16.g\	.
32GJJk 32GG\	32ggJJk 32b 32g\	.
8G 8GG/	8gg 8b 8g\	.
8f 8d 8G\	8bn 8g/	.
!!LO:LB:g=original
=66	=66	=66
8e- 8c\	8cc 8g/	.
(>8c\L	(>8cc\L	.
8B-\)	8dd-X\)	.
8B-J 8E-'\	8ee-J 8dd- 8g'\	.
!	!LO:TX:b:i:t=dolce	!
=67	=67	=67
!LO:TX:t=P:problem:mixed beam	!	!
8AA-/L	8ee-L 8cc 8a-'\	.
8c\J 8A-\ 8E-\	(>16ddnL 16bn\	.
.	16ee-JJ 16cc\)	.
*rep	*	*
8AA-\L	8ffL 8dd-X\	.
8cJ 8A- 8E-\	8ee-J 8cc\	.
*Xrep	*	*
=68	=68	=68
!LO:TX:t=P:problem:mixed beam	!	!
8AA-/L	(>4aa- 4cc\	.
8c\J 8A-\ 8E-\	.	.
*rep	*	*
8AA-\L	8ccL 8a-/)	.
8cJ 8A- 8E-\	8ccJ 8a-'/	.
*Xrep	*	*
=69	=69	=69
*^	*	*
4E-/	8E-\L	8.dd-L 8.b-\	.
.	8d-J 8B-\	.	.
.	.	16ccJk 16an\	.
4E-/	8E-\L	8dd-L 8b-\	.
.	8d-J 8B-\	8ee-J 8g\	.
*v	*v	*	*
=70	=70	=70
!LO:TX:t=P:problem:mixed beam	!	!
8AA-/L	16ccLL| 16a-\	.
.	(>16aa- 16cc\	.
8c\J 8A-\ 8E-\	16ee- 16cc\	.
.	16ccJJ 16a-\)	.
8B- 8G 8E-\	16b-LL 16g/	.
.	16cc 16a-'/	.
8r	16dd- 16b-'/	.
.	16ddnJJ 16bn'/	.
!!LO:LB:g=original
=71	=71	=71
!LO:TX:t=P:problem:mixed beam	!	!
8AA-/L	8ee-L 8cc'\	.
8c\J 8A-\ 8F\	(>16ddnL 16bn\	.
.	16ee-JJ 16cc\)	.
!LO:TX:t=P:problem:mixed beam	!	!
8AA-/L	8ffL 8dd-X\	.
8c\J 8A-\ 8G-X\	8ee-J 8cc\	.
=72	=72	=72
.	(<32qqa-/LLL	.
.	32qqdd-/JJJ	.
*^	*	*
4F/	8F\L	(>4aa- 4dd- 4a-\)	.
.	8d-J 8A-\	.	.
4Dn/	8Dn\L	8ffL 8f/)	.
.	8BnJ 8A- 8F\	8ffJ 8f'>/	.
=73	=73	=73	=73
4E-/	8E-\L	(>16ff\LL	.
.	.	16ee-\	.
.	8cJ 8A-\	16cc\	.
.	.	16a-\JJ)	.
4E-/	8E-\L	(<16dn/LL	.
.	.	16e-/	.
.	8d-J 8G\	16.cc/)	.
.	.	32b-/|JJk	.
*v	*v	*	*
=	=	=
8c 8A-\	8a-/	.
!	!	!LO:DY:rj
16.E-LL 16.EE-/	16.ggLL 16.ee- 16.dd- 16.b-\	f
32E-JJk 32EE-/	32ggJJk 32ee- 32dd- 32b-\	.
!	!LO:TX:b:i:t=da capo\nmarcia\ne poi\nla Coda	!
!	!LO:TX:a:t=P:problem:fermata nad kreską taktową; nie wyświetla się	!
8A- 8AA-/	8aa- 8ee- 8cc\	.
!!LO:PB:g=original
=74:|!	=74:|!	=74:|!
*>F	*>F	*
*k[b-e-a-]	*k[b-e-a-]	*
!	!LO:TX:a:i:t=Coda.	!
16G'\LL	16g'/LL	.
16E-'\JJ	16e-'/JJ	.
=75	=75	=75
8C/	8c/	.
16.cLL 16.C\	16.eee-LL 16.gg 16.ee-\	.
32cJJk 32C\	32eee-JJk 32gg 32ee-\	.
8c 8C\	8eee- 8gg 8ee-\	.
16E-'\LL	16e-'/LL	.
16C'\JJ	16c'/JJ	.
=76	=76	=76
8AA-/	8A-/	.
16.A-LL 16.AA-\	16.fffLL 16.aa- 16.ff\	.
32A-JJk 32AA-\	32fffJJk 32aa- 32ff\	.
8A- 8AA-\	8fff 8aa- 8ff\	.
16C'/LL	16c'/LL	.
16AA-'/JJ	16A-'/JJ	.
=77	=77	=77
8BB-/	8B-/	.
16.B-LL 16.BB-\	16.eee-LL 16.bb- 16.gg\	.
32B-JJk 32BB-\	32eee-JJk 32bb- 32gg\	.
!LO:TX:t=P:problem:mixed beam	!	!
8B-\L 8BB-\	8eee-L 8bb- 8ff\	.
8BB-/J 8BBB-/	8dddJ 8bb- 8ff\	.
!!LO:LB:g=original
=78	=78	=78
8E- 8EE-/	8eee- 8bb- 8gg\	.
16.e-LL 16.E-\	16.eee-LL 16.bb- 16.gg 16.ee-\	.
32e-JJk 32E-\	32eee-JJk 32bb- 32gg 32ee-\	.
8e- 8E-\	8eee- 8bb- 8gg 8ee-\	.
(<32qqE-/LLL	(<32qqe-/LLL	.
32qqF/JJJ	32qqf/JJJ	.
16G\LL)	16g/LL)	.
16E-'\JJ	16e-'/JJ	.
=79	=79	=79
8C/	8c/	.
16.cLL 16.C\	16.eee-LL 16.gg 16.ee-\	.
32cJJk 32C\	32eee-JJk 32gg 32ee-\	.
8c 8C\	8eee- 8gg 8ee-\	.
(<32qqC/LLL	(<32qqc/LLL	.
32qqD/JJJ	32qqd/JJJ	.
16E-/LL)	16e-/LL)	.
16C'/JJ	16c'/JJ	.
=80	=80	=80
8AA-/	8A-/	.
16.A-LL 16.AA-/	16.fffLL 16.aa- 16.ff\	.
32A-JJk 32AA-/	32fffJJk 32aa- 32ff\	.
8A- 8AA-/	8fff 8aa- 8ff\	.
(<32qqAA-/LLL	(<32qqA-/LLL	.
32qqBB-/JJJ	32qqB-/JJJ	.
16C/LL)	16c/LL)	.
16AA-'/JJ	16A-'/JJ	.
!!LO:LB:g=original
=81	=81	=81
8BB-/	8B-/	.
16.B-LL 16.BB-\	16.eee-LL 16.bb- 16.gg\	.
32B-JJk 32BB-\	32eee-JJk 32bb- 32gg\	.
!LO:TX:t=P:problem:mixed beam	!	!
8B-\L 8BB-\	8eee-L 8bb- 8ff\	.
8BB-/J 8BBB-/	8dddJ 8bb- 8ff\	.
=82	=82	=82
4r	4r	.
16.r	16.r	.
32B-\	32b-\|	.
32An\LLL	32cc'\LLL	<
32A-X\	32dd 32b-'\	.
32G\	32ee- 32b-'\	.
32D\JJJ	32ffJJJ 32b-'\	[[
=83	=83	=83
4E- 4EE-/	4gg 4ee- 4b-\	sf
8FL 8BB-\	(>16ffLL 16dd\	.
.	16ee- 16cc\	.
8FJ 8BB-\	16dd 16b-\	.
.	16ccJJ 16a-\	.
=84	=84	=84
(>4G 4E-\	(<4b- 4g/)	.
8B-L 8E-\)	8gL 8e-/)	.
8B-J 8E-\	8gJ 8e-'/	.
!!LO:LB:g=original
=85	=85	=85
8B-L 8D\	8.a-L 8.f/	.
8B-J 8BB-\	.	.
.	16ffJk 16a-/	.
8B-L 8D\	8ffL 8a-/	.
8B-J 8BB-\	8a-J 8f/	.
=86	=86	=86
16E-/LL	16gLL 16e-/	.
16BB-/	16f 16d/	.
16E-/	16g 16e-/	.
16AA-/JJ	16a-JJ 16c/	.
!LO:TX:t=P:problem:mixed beam	!	!
16.BB-/LL	16.fLL 16.d/	.
32B-\JJk	32b-/JJk|	.
32An\LLL	32cc'\LLL	.
32A-X\	32dd 32b-'\	.
32G\	32ee- 32b-'\	.
32D\JJJ	32ffJJJ 32b-'\	.
=87	=87	=87
4E- 4EE-/	4gg 4ee- 4b-\	.
16BBn/LL	16ffLL 16dd\	.
16C/	16ee- 16cc\	.
16GG/	16dd 16b-\	.
16AA-/JJ	16ccJJ 16a-\	.
=88	=88	=88
8BB-/L	8b-L 8f 8d/	.
16C/L	16a-L 16e- 16c/	.
16D/JJ	16fJJ 16B-/	.
8E-\	8g 8e-/	.
16cLL 16C\	16ee-LL 16cc 16g/	.
16cJJ 16C\	16ee-JJ 16cc 16g/	.
!!LO:LB:g=original
=89	=89	=89
8A- 8AA-\	8cc 8a- 8e-/	.
16A-LL 16AA-\	16ffLL 16cc 16a-\	.
16A-JJ 16AA-\	16ffJJ 16cc 16a-\	.
!LO:TX:t=P:problem:mixed beam	!	!
8B-\L 8BB-\	8ee-L 8b- 8g/	.
8BB-/J 8BBB-/	8ddJ 8b- 8a- 8f/	.
=90	=90	=90
16E- 16EE-/	16ee- 16b- 16g/	.
16BB-/LL	16B-/LL	.
16.E-/	16.e-/	.
32G/JJk	32g/JJk	.
8B-\	8b-/	.
8BB- 8BBB-/	8dd 8b- 8a- 8f/	.
=91	=91	=91
16E- 16EE-/	16ee- 16b- 16g 16e-/	.
16BB-/LL	16B-/LL	.
16.E-/	16.e-/	.
32G/JJk	32g/JJk	.
8B-\	8b-/	.
8B- 8BB-\	8ddd 8bb- 8aa- 8ff\	.
!	!LO:TX:a:i:t=vi+	!
=92	=92	=92
!	!LO:TX:a:i:t=de x	!
!	!LO:TX:a:t=P:problem:2 takty wykreślone, a takty właściwe zapisane na końcu strony	!
16e-LL 16E-\	16eee-LL 16bb- 16gg 16ee-\	.
32e-L 32E-\	32ee-L 32b- 32g\	.
32e-JJJ 32E-\	32ee-JJJ 32b- 32g\	.
16e-LL 16E-\	16ee-LL 16b- 16g\	.
32B-L 32BB-\	32ggL 32ee- 32b-\	.
32B-JJJ 32BB-\	32ggJJJ 32ee- 32b-\	.
16B-LL 16BB-\	16ggLL 16ee- 16b-\	.
32GL 32GG\	32bb-L 32gg 32ee-\	.
32GJJJ 32GG\	32bb-JJJ 32gg 32ee-\	.
16GLL 16GG/	16bb-LL 16gg 16ee-\	.
32E-L 32EE-/	32eee-L 32bb- 32gg\	.
32E-JJJ 32EE-/	32eee-JJJ 32bb- 32gg\	.
=93	=93	=93
8E- 8EE-/	8eee- 8bb- 8gg\	.
8r	8r	.
8e- 8B- 8G 8E-\	8ggg 8eee- 8bb- 8gg\	.
16r	16r	.
16E- 16EE-/	16e- 16B- 16G/	.
=94	=94	=94
2E- 2EE-\	2e- 2B- 2G/	.
==	==	==
*-	*-	*-
!!!system-decoration: {(s1,s2)}
!!!RDF**kern: > = above
!!!RDF**kern: < = below
!!!RDF**dynam: > = dim. fontstyle=italic
!!!RDF**dynam: < = cresc: fontstyle=italic
!!!RDF**kern: | = vertical stroke
!!!EED: Antoni Szymański
!!!EST: 2021-05-05
!!!AIN: 1 piano
!!!ENC: Krzysztof Stępień
!!!END: 2021-04-10
